gtk-icons/Papirus-GTK/32x32/apps/chess.svg

<?xml version="1.0" encoding="UTF-8" standalone="no"?>
<!-- Generator: Adobe Illustrator 16.0.0, SVG Export Plug-In . SVG Version: 6.00 Build 0)  -->

<svg
   xmlns:dc="http://purl.org/dc/elements/1.1/"
   xmlns:cc="http://creativecommons.org/ns#"
   xmlns:rdf="http://www.w3.org/1999/02/22-rdf-syntax-ns#"
   xmlns:svg="http://www.w3.org/2000/svg"
   xmlns="http://www.w3.org/2000/svg"
   xmlns:sodipodi="http://sodipodi.sourceforge.net/DTD/sodipodi-0.dtd"
   xmlns:inkscape="http://www.inkscape.org/namespaces/inkscape"
   version="1.1"
   id="Capa_1"
   x="0px"
   y="0px"
   width="32"
   height="32"
   viewBox="0 0 31.999999 31.999999"
   xml:space="preserve"
   inkscape:version="0.91 r"
   sodipodi:docname="chess.svg"><metadata
     id="metadata43"><rdf:RDF><cc:Work
         rdf:about=""><dc:format>image/svg+xml</dc:format><dc:type
           rdf:resource="http://purl.org/dc/dcmitype/StillImage" /><dc:title></dc:title></cc:Work></rdf:RDF></metadata><defs
     id="defs41" /><sodipodi:namedview
     pagecolor="#ffffff"
     bordercolor="#666666"
     borderopacity="1"
     objecttolerance="10"
     gridtolerance="10"
     guidetolerance="10"
     inkscape:pageopacity="0"
     inkscape:pageshadow="2"
     inkscape:window-width="1600"
     inkscape:window-height="848"
     id="namedview39"
     showgrid="false"
     inkscape:zoom="15.07"
     inkscape:cx="3.881031"
     inkscape:cy="17.414585"
     inkscape:window-x="0"
     inkscape:window-y="26"
     inkscape:window-maximized="1"
     inkscape:current-layer="Capa_1" /><g
     id="g9"
     transform="translate(0,-4.117001)" /><g
     id="g11"
     transform="translate(0,-4.117001)" /><g
     id="g13"
     transform="translate(0,-4.117001)" /><g
     id="g15"
     transform="translate(0,-4.117001)" /><g
     id="g17"
     transform="translate(0,-4.117001)" /><g
     id="g19"
     transform="translate(0,-4.117001)" /><g
     id="g21"
     transform="translate(0,-4.117001)" /><g
     id="g23"
     transform="translate(0,-4.117001)" /><g
     id="g25"
     transform="translate(0,-4.117001)" /><g
     id="g27"
     transform="translate(0,-4.117001)" /><g
     id="g29"
     transform="translate(0,-4.117001)" /><g
     id="g31"
     transform="translate(0,-4.117001)" /><g
     id="g33"
     transform="translate(0,-4.117001)" /><g
     id="g35"
     transform="translate(0,-4.117001)" /><g
     id="g37"
     transform="translate(0,-4.117001)" /><g
     id="g3"
     transform="matrix(0.77144309,0,0,0.77525819,1.5383448,1.9999981)"
     style="fill:#4d4d4d;fill-opacity:1"><g
       id="g5"
       style="fill:#4d4d4d;fill-opacity:1"><path
         d="M 16.941406 2 C 16.784032 2.0783011 16.604065 2.1363797 16.462891 2.2441406 C 16.1898 2.4534604 15.924235 2.6768634 15.679688 2.9179688 C 15.411225 3.1823318 15.134081 3.3334356 14.742188 3.4140625 C 13.801027 3.604776 12.84506 3.8165239 11.964844 4.1855469 C 10.008464 5.0088712 8.7136617 6.5585567 7.7910156 8.4238281 C 6.971743 10.082106 6.9583082 11.881247 7.0253906 13.6875 C 7.1637613 17.413249 9.8828709 20.132986 11.070312 23 L 10.908203 23 C 10.405238 23 10 23.333101 10 23.748047 L 10 25.251953 C 10 25.666899 10.405238 26 10.908203 26 L 10.089844 26 C 9.486286 26 9 26.444786 9 26.998047 L 9 29.001953 C 9 29.555214 9.486286 30 10.089844 30 L 19.910156 30 C 20.513714 30 21 29.555214 21 29.001953 L 21 26.998047 C 21 26.444786 20.513714 26 19.910156 26 L 19.091797 26 C 19.594762 26 20 25.666899 20 25.251953 L 20 23.748047 C 20 23.333101 19.594762 23 19.091797 23 L 19.042969 23 C 19.34306 22.721682 19.630747 22.22202 19.898438 21.9375 C 21.111918 20.653672 21.328236 18.831304 20.476562 17.271484 C 20.059983 16.509405 19.474612 15.892007 18.798828 15.363281 C 18.038185 14.768658 17.251961 14.207189 16.484375 13.621094 C 16.265285 13.453638 16.071674 13.253047 15.779297 12.990234 C 16.502911 13.14296 17.077717 13.341634 17.660156 13.371094 C 18.665347 13.42071 19.533275 13.754524 20.337891 14.339844 C 20.648782 14.566219 21.008926 14.745502 21.373047 14.871094 C 21.845942 15.033898 22.082886 14.918177 22.365234 14.490234 C 22.439293 14.377822 22.483715 14.247684 22.554688 14.099609 C 23.114755 14.107362 23.421883 13.783498 23.576172 13.265625 C 23.62863 13.088866 23.718402 12.92406 23.783203 12.751953 C 24.218297 11.598369 23.994086 10.577497 23.160156 9.6875 C 22.973467 9.4836071 22.751816 9.3145057 22.556641 9.1191406 C 21.906314 8.4694742 21.253267 7.8233747 20.619141 7.1582031 C 20.15936 6.674442 19.743706 6.1478536 19.279297 5.6679688 C 19.049407 5.431515 18.855277 5.1959869 18.748047 4.8789062 C 18.586815 4.4036729 18.283062 4.038323 17.841797 3.7910156 C 17.685194 3.7034114 17.53723 3.600218 17.423828 3.5273438 C 17.241768 2.9970671 17.671963 2.3333611 16.941406 2 z "
         transform="matrix(1.2962717,0,0,1.2898927,-1.9941131,-2.5797833)"
         id="path7"
         style="fill:#4d4d4d;fill-opacity:1" /></g></g><g
     style="fill:#ffffff;fill-opacity:1"
     transform="matrix(0.77144309,0,0,0.77525819,1.5383448,1.9999981)"
     id="g4165"><g
       style="fill:#ffffff;fill-opacity:1"
       id="g4167"><path
         style="fill:#ffffff;fill-opacity:1;opacity:0.2"
         d="M 16.941406 2 C 16.784032 2.0783011 16.604065 2.1363797 16.462891 2.2441406 C 16.1898 2.4534604 15.924234 2.6768634 15.679688 2.9179688 C 15.411225 3.1823317 15.13408 3.3334356 14.742188 3.4140625 C 13.801027 3.604776 12.84506 3.8165239 11.964844 4.1855469 C 10.008464 5.0088712 8.7136617 6.5585567 7.7910156 8.4238281 C 7.0611278 9.9011837 6.9792057 11.491271 7.015625 13.097656 C 7.0461729 11.834661 7.2130968 10.593585 7.7910156 9.4238281 C 8.7136617 7.5585567 10.008464 6.0088712 11.964844 5.1855469 C 12.84506 4.8165239 13.801027 4.604776 14.742188 4.4140625 C 15.13408 4.3334356 15.411225 4.1823317 15.679688 3.9179688 C 15.924234 3.6768634 16.1898 3.4534604 16.462891 3.2441406 C 16.604065 3.1363797 16.784032 3.0783011 16.941406 3 C 17.671963 3.3333611 17.241768 3.9970671 17.423828 4.5273438 C 17.53723 4.6002179 17.685194 4.7034114 17.841797 4.7910156 C 18.283062 5.038323 18.586815 5.403673 18.748047 5.8789062 C 18.855277 6.1959869 19.049407 6.431515 19.279297 6.6679688 C 19.743706 7.1478535 20.15936 7.674442 20.619141 8.1582031 C 21.253267 8.8233747 21.906314 9.4694742 22.556641 10.119141 C 22.751816 10.314506 22.973467 10.483607 23.160156 10.6875 C 23.580279 11.135868 23.844931 11.617777 23.949219 12.132812 C 24.108409 11.230485 23.841151 10.41428 23.160156 9.6875 C 22.973467 9.4836071 22.751816 9.3145057 22.556641 9.1191406 C 21.906314 8.4694742 21.253267 7.8233747 20.619141 7.1582031 C 20.15936 6.674442 19.743706 6.1478535 19.279297 5.6679688 C 19.049407 5.431515 18.855277 5.1959869 18.748047 4.8789062 C 18.586815 4.403673 18.283062 4.038323 17.841797 3.7910156 C 17.685194 3.7034114 17.53723 3.6002179 17.423828 3.5273438 C 17.241768 2.9970671 17.671963 2.3333611 16.941406 2 z M 15.779297 13.990234 C 16.071674 14.253047 16.265285 14.453638 16.484375 14.621094 C 17.251961 15.207189 18.038185 15.768658 18.798828 16.363281 C 19.474612 16.892007 20.059984 17.509405 20.476562 18.271484 C 20.739661 18.753343 20.887872 19.261178 20.949219 19.769531 C 21.064902 18.939272 20.913491 18.071708 20.476562 17.271484 C 20.059984 16.509405 19.474612 15.892007 18.798828 15.363281 C 18.349478 15.012008 17.889729 14.674029 17.431641 14.333984 C 16.923696 14.273446 16.409679 14.123283 15.779297 13.990234 z M 10.617188 23.048828 C 10.260071 23.149287 10 23.418525 10 23.748047 L 10 24.748047 C 10 24.333101 10.405238 24 10.908203 24 L 11.070312 24 C 10.938399 23.681502 10.781268 23.365272 10.617188 23.048828 z M 19.695312 23.197266 C 19.485852 23.47213 19.269899 23.789534 19.042969 24 L 19.091797 24 C 19.594762 24 20 24.333101 20 24.748047 L 20 23.748047 C 20 23.52658 19.879434 23.333903 19.695312 23.197266 z M 10 26.015625 C 9.4408977 26.059122 9 26.473922 9 26.998047 L 9 27.998047 C 9 27.444786 9.4862858 27 10.089844 27 L 10.908203 27 C 10.405238 27 10 26.666899 10 26.251953 L 10 26.015625 z M 20 26.015625 L 20 26.251953 C 20 26.666899 19.594762 27 19.091797 27 L 19.910156 27 C 20.513714 27 21 27.444786 21 27.998047 L 21 26.998047 C 21 26.473922 20.559102 26.059122 20 26.015625 z "
         transform="matrix(1.2962717,0,0,1.2898927,-1.9941131,-2.5797833)"
         id="path4169" /></g></g><g
     id="g4171"
     transform="matrix(0.77144309,0,0,0.77525819,1.5383448,2.999998)"
     style="fill:#ffffff;fill-opacity:1"><g
       id="g4173"
       style="fill:#ffffff;fill-opacity:1" /></g><g
     style="fill:#000000;fill-opacity:1"
     transform="matrix(0.77144309,0,0,0.77525819,1.5383448,1.9999981)"
     id="g4178"><g
       style="fill:#000000;fill-opacity:1"
       id="g4180"><path
         style="fill:#000000;fill-opacity:1;opacity:0.3"
         d="M 23.949219 11.132812 C 23.913468 11.335454 23.862996 11.540396 23.783203 11.751953 C 23.718402 11.92406 23.628632 12.088866 23.576172 12.265625 C 23.421883 12.783498 23.114754 13.107409 22.554688 13.099609 C 22.483715 13.247684 22.439294 13.377822 22.365234 13.490234 C 22.082886 13.918174 21.845942 14.033898 21.373047 13.871094 C 21.008926 13.745502 20.648782 13.566219 20.337891 13.339844 C 19.533275 12.754524 18.665347 12.420714 17.660156 12.371094 C 17.077717 12.341634 16.502911 12.14296 15.779297 11.990234 C 16.071674 12.253047 16.265285 12.453638 16.484375 12.621094 C 16.79851 12.860953 17.114294 13.098413 17.431641 13.333984 C 17.506765 13.342938 17.585113 13.367298 17.660156 13.371094 C 18.665347 13.42071 19.533275 13.754524 20.337891 14.339844 C 20.648782 14.566219 21.008926 14.745502 21.373047 14.871094 C 21.845942 15.033898 22.082886 14.918177 22.365234 14.490234 C 22.439293 14.377822 22.483715 14.247684 22.554688 14.099609 C 23.114754 14.107362 23.421883 13.783498 23.576172 13.265625 C 23.62863 13.088866 23.718402 12.92406 23.783203 12.751953 C 23.999103 12.179529 24.051939 11.640106 23.949219 11.132812 z M 7.015625 12.097656 C 7.0028674 12.625116 7.0056285 13.155387 7.0253906 13.6875 C 7.1483897 16.999354 9.3042708 19.516747 10.617188 22.048828 C 10.709766 22.022785 10.804658 22 10.908203 22 L 11.070312 22 C 9.8828714 19.132986 7.1637613 16.413249 7.0253906 12.6875 C 7.0180718 12.490433 7.020085 12.29438 7.015625 12.097656 z M 20.949219 18.769531 C 20.839409 19.557638 20.489374 20.312306 19.898438 20.9375 C 19.630747 21.22202 19.34306 21.721682 19.042969 22 L 19.091797 22 C 19.326317 22 19.53446 22.077896 19.695312 22.197266 C 19.762841 22.108652 19.833176 22.006864 19.898438 21.9375 C 20.73705 21.050271 21.086458 19.906762 20.949219 18.769531 z M 10 24.251953 L 10 25.015625 C 10.031081 25.013207 10.058059 25 10.089844 25 L 10.908203 25 C 10.405238 25 10 24.666899 10 24.251953 z M 20 24.251953 C 20 24.666899 19.594762 25 19.091797 25 L 19.910156 25 C 19.941941 25 19.968919 25.013207 20 25.015625 L 20 24.251953 z M 9 28.001953 L 9 29.001953 C 9 29.555214 9.4862858 30 10.089844 30 L 19.910156 30 C 20.513714 30 21 29.555214 21 29.001953 L 21 28.001953 C 21 28.555214 20.513714 29 19.910156 29 L 10.089844 29 C 9.4862858 29 9 28.555214 9 28.001953 z "
         transform="matrix(1.2962717,0,0,1.2898927,-1.9941131,-2.5797833)"
         id="path4182" /></g></g><g
     id="g4184"
     transform="matrix(0.77144309,0,0,0.77525819,1.5383448,0.99999828)"
     style="fill:#333333;fill-opacity:1"><g
       id="g4186"
       style="fill:#333333;fill-opacity:1" /></g></svg>

<?xml version="1.0" encoding="UTF-8" standalone="no"?>
<!-- Generator: Adobe Illustrator 16.0.0, SVG Export Plug-In . SVG Version: 6.00 Build 0)  -->
<svg id="Capa_1" xmlns:rdf="http://www.w3.org/1999/02/22-rdf-syntax-ns#" xmlns="http://www.w3.org/2000/svg" xml:space="preserve" height="32" viewBox="0 0 31.999999 31.999999" width="32" version="1.1" y="0px" x="0px" xmlns:cc="http://creativecommons.org/ns#" xmlns:dc="http://purl.org/dc/elements/1.1/"><metadata id="metadata43"><rdf:RDF><cc:Work rdf:about=""><dc:format>image/svg+xml</dc:format><dc:type rdf:resource="http://purl.org/dc/dcmitype/StillImage"/><dc:title/></cc:Work></rdf:RDF></metadata><g id="g3" fill="#4d4d4d" transform="matrix(.77144 0 0 .77526 1.5383 2)"><g id="g5" fill="#4d4d4d"><path id="path7" d="m16.941 2c-0.157 0.0783-0.337 0.1364-0.478 0.2441-0.273 0.2094-0.539 0.4328-0.783 0.6739-0.269 0.2643-0.546 0.4154-0.938 0.4961-0.941 0.1907-1.897 0.4024-2.777 0.7714-1.957 0.8234-3.2513 2.3731-4.174 4.2383-0.8193 1.6582-0.8327 3.4572-0.7656 5.2642 0.1384 3.725 2.8575 6.445 4.0446 9.312h-0.162c-0.503 0-0.908 0.333-0.908 0.748v1.504c0 0.415 0.405 0.748 0.908 0.748h-0.818c-0.6037 0-1.09 0.445-1.09 0.998v2.004c0 0.553 0.4863 0.998 1.09 0.998h9.82c0.604 0 1.09-0.445 1.09-0.998v-2.004c0-0.553-0.486-0.998-1.09-0.998h-0.818c0.503 0 0.908-0.333 0.908-0.748v-1.504c0-0.415-0.405-0.748-0.908-0.748h-0.049c0.3-0.278 0.588-0.778 0.855-1.062 1.214-1.284 1.43-3.107 0.579-4.667-0.417-0.762-1.002-1.379-1.678-1.908-0.761-0.594-1.547-1.156-2.315-1.742-0.219-0.167-0.412-0.368-0.705-0.631 0.724 0.153 1.299 0.352 1.881 0.381 1.005 0.05 1.873 0.384 2.678 0.969 0.311 0.226 0.671 0.406 1.035 0.531 0.473 0.163 0.71 0.047 0.992-0.381 0.074-0.112 0.119-0.242 0.19-0.39 0.56 0.007 0.867-0.317 1.021-0.834 0.053-0.177 0.142-0.342 0.207-0.514 0.435-1.154 0.211-2.175-0.623-3.0645-0.187-0.2039-0.408-0.373-0.603-0.5684-0.651-0.6496-1.304-1.2957-1.938-1.9609-0.46-0.4838-0.875-1.0103-1.34-1.4902-0.23-0.2365-0.424-0.472-0.531-0.7891-0.161-0.4752-0.465-0.8406-0.906-1.0879-0.157-0.0876-0.305-0.1908-0.418-0.2637-0.182-0.5302 0.248-1.1939-0.483-1.5273z" transform="matrix(1.2963 0 0 1.2899 -1.9941 -2.5798)" fill="#4d4d4d"/></g></g><g id="g4165" fill="#fff" transform="matrix(.77144 0 0 .77526 1.5383 2)"><g id="g4167" fill="#fff"><path id="path4169" opacity=".2" d="m16.941 2c-0.157 0.0783-0.337 0.1364-0.478 0.2441-0.273 0.2094-0.539 0.4328-0.783 0.6739-0.269 0.2643-0.546 0.4154-0.938 0.4961-0.941 0.1907-1.897 0.4024-2.777 0.7714-1.957 0.8234-3.2513 2.3731-4.174 4.2383-0.7299 1.4774-0.8118 3.0672-0.7754 4.6742 0.0306-1.263 0.1975-2.504 0.7754-3.6742 0.9227-1.8652 2.217-3.4149 4.174-4.2383 0.88-0.369 1.836-0.5807 2.777-0.7714 0.392-0.0807 0.669-0.2318 0.938-0.4961 0.244-0.2411 0.51-0.4645 0.783-0.6739 0.141-0.1077 0.321-0.1658 0.478-0.2441 0.731 0.3334 0.301 0.9971 0.483 1.5273 0.113 0.0729 0.261 0.1761 0.418 0.2637 0.441 0.2473 0.745 0.6127 0.906 1.0879 0.107 0.3171 0.301 0.5526 0.531 0.7891 0.465 0.4799 0.88 1.0064 1.34 1.4902 0.634 0.6652 1.287 1.3113 1.938 1.9608 0.195 0.196 0.416 0.365 0.603 0.569 0.42 0.448 0.685 0.93 0.789 1.445 0.159-0.903-0.108-1.719-0.789-2.4455-0.187-0.2039-0.408-0.373-0.603-0.5684-0.651-0.6496-1.304-1.2957-1.938-1.9609-0.46-0.4838-0.875-1.0103-1.34-1.4902-0.23-0.2365-0.424-0.472-0.531-0.7891-0.161-0.4752-0.465-0.8406-0.906-1.0879-0.157-0.0876-0.305-0.1908-0.418-0.2637-0.182-0.5302 0.248-1.1939-0.483-1.5273zm-1.162 11.99c0.293 0.263 0.486 0.464 0.705 0.631 0.768 0.586 1.554 1.148 2.315 1.742 0.676 0.529 1.261 1.146 1.678 1.908 0.263 0.482 0.411 0.99 0.472 1.499 0.116-0.831-0.036-1.698-0.472-2.499-0.417-0.762-1.002-1.379-1.678-1.908-0.45-0.351-0.909-0.689-1.367-1.029-0.508-0.061-1.022-0.211-1.653-0.344zm-5.162 9.059c-0.357 0.1-0.617 0.37-0.617 0.699v1c0-0.415 0.405-0.748 0.908-0.748h0.162c-0.132-0.318-0.289-0.635-0.453-0.951zm9.078 0.148c-0.209 0.275-0.425 0.593-0.652 0.803h0.049c0.503 0 0.908 0.333 0.908 0.748v-1c0-0.221-0.121-0.414-0.305-0.551zm-9.695 2.819c-0.5591 0.043-1 0.458-1 0.982v1c0-0.553 0.4863-0.998 1.09-0.998h0.818c-0.503 0-0.908-0.333-0.908-0.748v-0.236zm10 0v0.236c0 0.415-0.405 0.748-0.908 0.748h0.818c0.604 0 1.09 0.445 1.09 0.998v-1c0-0.524-0.441-0.939-1-0.982z" transform="matrix(1.2963 0 0 1.2899 -1.9941 -2.5798)" fill="#fff"/></g></g><g id="g4171" fill="#fff" transform="matrix(.77144 0 0 .77526 1.5383 3)"/><g id="g4178" transform="matrix(.77144 0 0 .77526 1.5383 2)"><g id="g4180"><path id="path4182" opacity=".3" d="m23.949 11.133c-0.036 0.202-0.086 0.407-0.166 0.619-0.065 0.172-0.154 0.337-0.207 0.514-0.154 0.517-0.461 0.841-1.021 0.834-0.071 0.148-0.116 0.278-0.19 0.39-0.282 0.428-0.519 0.544-0.992 0.381-0.364-0.125-0.724-0.305-1.035-0.531-0.805-0.585-1.673-0.919-2.678-0.969-0.582-0.029-1.157-0.228-1.881-0.381 0.293 0.263 0.486 0.464 0.705 0.631 0.315 0.24 0.63 0.477 0.948 0.713 0.075 0.009 0.153 0.033 0.228 0.037 1.005 0.05 1.873 0.384 2.678 0.969 0.311 0.226 0.671 0.406 1.035 0.531 0.473 0.163 0.71 0.047 0.992-0.381 0.074-0.112 0.119-0.242 0.19-0.39 0.56 0.007 0.867-0.317 1.021-0.834 0.053-0.177 0.142-0.342 0.207-0.514 0.216-0.572 0.269-1.112 0.166-1.619zm-16.933 0.965c-0.0127 0.527-0.01 1.057 0.0098 1.59 0.123 3.311 2.2789 5.829 3.5916 8.361 0.093-0.026 0.188-0.049 0.291-0.049h0.162c-1.1871-2.867-3.9062-5.587-4.0446-9.312-0.0073-0.198-0.0053-0.394-0.0098-0.59zm13.933 6.672c-0.11 0.788-0.46 1.542-1.051 2.168-0.267 0.284-0.555 0.784-0.855 1.062h0.049c0.234 0 0.442 0.078 0.603 0.197 0.068-0.088 0.138-0.19 0.203-0.259 0.839-0.888 1.188-2.031 1.051-3.168zm-10.949 5.482v0.764c0.031-0.003 0.058-0.016 0.09-0.016h0.818c-0.503 0-0.908-0.333-0.908-0.748zm10 0c0 0.415-0.405 0.748-0.908 0.748h0.818c0.032 0 0.059 0.013 0.09 0.016v-0.764zm-11 3.75v1c0 0.553 0.4863 0.998 1.09 0.998h9.82c0.604 0 1.09-0.445 1.09-0.998v-1c0 0.553-0.486 0.998-1.09 0.998h-9.82c-0.6037 0-1.09-0.445-1.09-0.998z" transform="matrix(1.2963 0 0 1.2899 -1.9941 -2.5798)"/></g></g><g id="g4184" fill="#333" transform="matrix(.77144 0 0 .77526 1.5383 1)"/></svg>
